X: 2460
T:Kitty's Gone A-Milking
R:reel
D:Mary Bergin: Feadoga Stain
Z:id:hn-reel-181
M:C|
K:G
dG~G2 d2cA|dG~G2 FGAB|dG~G2 d2eg|fdcA GABc:|
dg~g2 ag~g2|dg~g2 d2cA|1 dg~g2 ag~g2|dcAB c2Bc:|2 defg abag|fdcA GABc||
